svg/emoji_u23f9.svg

<svg width="128" height="128" viewBox="0 0 128 128" fill="none" xmlns="http://www.w3.org/2000/svg">
<path d="M116.46 3.95996H12.46C8.03996 3.95996 4.45996 7.53996 4.45996 11.96V115.96C4.45996 120.38 8.03996 123.96 12.46 123.96H116.46C120.88 123.96 124.46 120.38 124.46 115.96V11.96C124.46 7.53996 120.88 3.95996 116.46 3.95996Z" fill="#427687" style="fill:#427687;fill:color(display-p3 0.2588 0.4627 0.5294);fill-opacity:1;"/>
<path d="M110.16 3.95996H11.96C7.82998 3.98996 4.48998 7.32996 4.45998 11.46V109.36C4.44998 113.5 7.79998 116.85 11.94 116.86C11.95 116.86 11.95 116.86 11.96 116.86H110.06C114.2 116.87 117.55 113.52 117.56 109.38C117.56 109.37 117.56 109.37 117.56 109.36V11.46C117.65 7.40996 114.43 4.04996 110.38 3.95996C110.31 3.95996 110.23 3.95996 110.16 3.95996Z" fill="#8CAFBF" style="fill:#8CAFBF;fill:color(display-p3 0.5490 0.6863 0.7490);fill-opacity:1;"/>
<path opacity="0.75" d="M40.1596 12.8598C40.1596 10.5598 38.5596 9.85984 29.3596 10.1598C21.6596 10.4598 17.8596 11.3598 15.5596 14.1598C13.2596 16.9598 12.6596 22.6598 12.5596 29.4598C12.5596 34.2598 12.5596 38.7598 15.0596 38.7598C18.4596 38.7598 18.4596 30.8598 21.2596 26.4598C26.6596 17.7598 40.1596 15.8598 40.1596 12.8598Z" fill="#A0C8D6" style="fill:#A0C8D6;fill:color(display-p3 0.6275 0.7843 0.8392);fill-opacity:1;"/>
<path d="M89.66 91.96H39.26C37.71 91.96 36.46 90.71 36.46 89.16V38.76C36.46 37.21 37.71 35.96 39.26 35.96H89.66C91.17 35.92 92.42 37.11 92.46 38.62C92.46 38.67 92.46 38.71 92.46 38.76V89.16C92.5 90.67 91.31 91.92 89.8 91.96C89.75 91.96 89.71 91.96 89.66 91.96Z" fill="#FAFAFA" style="fill:#FAFAFA;fill:color(display-p3 0.9804 0.9804 0.9804);fill-opacity:1;"/>
</svg>

<?xml version="1.0" encoding="utf-8"?>
<!-- Generator: Adobe Illustrator 25.2.3, SVG Export Plug-In . SVG Version: 6.00 Build 0)  -->
<svg version="1.1" id="Layer_1" xmlns="http://www.w3.org/2000/svg" xmlns:xlink="http://www.w3.org/1999/xlink" x="0px" y="0px"
	 viewBox="0 0 128 128" style="enable-background:new 0 0 128 128;" xml:space="preserve">
<g>
	<path style="fill:#F77E00;" d="M116.46,3.96h-104c-4.42,0-8,3.58-8,8v104c0,4.42,3.58,8,8,8h104c4.42,0,8-3.58,8-8v-104
		C124.46,7.54,120.88,3.96,116.46,3.96z"/>
	<path style="fill:#FF9800;" d="M110.16,3.96h-98.2c-4.13,0.03-7.47,3.37-7.5,7.5v97.9c-0.01,4.14,3.34,7.49,7.48,7.5
		c0.01,0,0.01,0,0.02,0h98.1c4.14,0.01,7.49-3.34,7.5-7.48c0-0.01,0-0.01,0-0.02v-97.9c0.09-4.05-3.13-7.41-7.18-7.5
		C110.31,3.96,110.23,3.96,110.16,3.96z"/>
	<path style="opacity:0.75;fill:#FFBD52;enable-background:new    ;" d="M40.16,12.86c0-2.3-1.6-3-10.8-2.7
		c-7.7,0.3-11.5,1.2-13.8,4s-2.9,8.5-3,15.3c0,4.8,0,9.3,2.5,9.3c3.4,0,3.4-7.9,6.2-12.3C26.66,17.76,40.16,15.86,40.16,12.86z"/>
	<path style="fill:#FAFAFA;" d="M89.66,91.96h-50.4c-1.55,0-2.8-1.25-2.8-2.8l0,0v-50.4c0-1.55,1.25-2.8,2.8-2.8h50.4
		c1.51-0.04,2.76,1.15,2.8,2.66c0,0.05,0,0.09,0,0.14v50.4c0.04,1.51-1.15,2.76-2.66,2.8C89.75,91.96,89.71,91.96,89.66,91.96z"/>
</g>
</svg>
